X:1
T:Title
%%score { ( 1 4 ) | ( 2 3 ) }
L:1/8
M:4/4
K:G
V:1 treble nm="Grand Piano"
V:4 treble 
V:2 treble 
V:3 treble 
V:1
 z4 z2[Q:1/4=100] [B,G]A | B3 B cB[B,G]A | [DB]6 [DGB]2 | z4 z2 .[DB]2 | G6 z A | B3 B cBAG | %6
 [EG]4 z4 | D3 c B2 A2 |[M:3/4] [G,B,G]6 |[M:1/4] z2 |[M:4/4] A6[K:bass][K:treble] z2 | B4 [B,G]4 | %12
 d4 z2 G2 |[M:9/8] [GB]3- [GB] [FA]2- [FA] D2 |[M:4/4] A6[K:bass][K:treble] z2 | B4 z2 [GB]2 | %16
 d3 B cBAG | [EG]4 z4 | D3 c B2 A2 |[M:3/4] [B,G]6 |] %20
V:2
 z4 z2 z C | [G,D]3 [G,D] ED[K:bass] z C | G,6 G,2 | D,3 D, D,2 z C | [G,B,]6[K:treble] B,C | %5
 [G,DG]3 [G,DG] ED[K:bass][G,D]-[G,B,D] | z2 z[K:treble] D FE[K:bass] z C | %7
 [D,G,B,]3 [D,A,D] [D,G,D]2 [D,F,C]2 |[M:3/4] G,,6 |[M:1/4] D2 |[M:4/4] C6 z2 | D4 z4 | %12
 G4 G2[K:bass] z2 |[M:9/8] [D,D]3- [D,D] [D,D]2- [D,D] z z |[M:4/4] C6 z2 | D4 z4 | z4 .E2 .C2 | %17
 z2 z D[K:treble] FE[K:bass] z C | [D,G,B,]3 [D,A,D] [D,G,D]2 [D,F,C]2 |[M:3/4] [G,,G,]6 |] %20
V:3
 z4 z2 G,2 | z4 G,2[K:bass] G,2 | x8 | z4 z2 D,2 | z4 z2[K:treble] G,2 | z4 [G,G]2[K:bass] .C2 | %6
 C,6[K:treble][K:bass] [C,G,]2 | x8 |[M:3/4] x6 |[M:1/4] x2 |[M:4/4] z D,D,D, D,[D,A,C]B,C | %11
 z G,,B,,D, G,2 G,,2 | [G,B,]G,G,[G,DG] [G,D][K:bass][G,C][G,B,][G,D] |[M:9/8] x9 | %14
[M:4/4] z D,D,D, D,CB,C | z G,,B,,D, G,2 G,G, | [G,B,G]3 [G,DG] [G,G]-[G,DG][G,D]-[G,B,D] | %17
 C,6[K:treble][K:bass] [C,G,]2 | x8 |[M:3/4] x6 |] %20
V:4
 x8 | x8 | x8 | [CFA]3 [B,D^G] [CDA]2 F-[FA] | z4 z2 G2 | x8 | C3- [C-F] [C-A][CG][DF]E | x8 | %8
[M:3/4] x6 |[M:1/4] x2 |[M:4/4] z[K:bass] F,F,F, F,[K:treble]FGA | z G,G,G, z2 G,2 | %12
 z B,B,B BA z B |[M:9/8] x9 |[M:4/4] z[K:bass] F,F,F, F,[K:treble]FGA | z G,G,G, [B,DG]2 DD | x8 | %17
 C3- [C-F] [C-A][CG][DF]E | x8 |[M:3/4] x6 |] %20

